public/images/dev24.svg

<svg width="100" height="100" viewBox="0 0 100 100" fill="none" xmlns="http://www.w3.org/2000/svg">
<path d="M3.25 42C3.25 42.6339 3.26667 43.2644 3.27 43.8949C3.27 44.3559 3.27 44.8169 3.27 45.2881C3.21646 45.3028 3.16184 45.313 3.10667 45.3186H0.106667C0.0706748 45.3145 0.0350259 45.3077 0 45.2983L0 42H3.25Z" fill="black"/>
<path d="M86.3633 44.0407H88.8867V49.1661C89.3 48.722 89.6667 48.3322 90.0267 47.939C91.1844 46.687 92.3411 45.4362 93.4967 44.1864C93.5648 44.1072 93.6579 44.0545 93.76 44.0373C94.7933 44.0373 95.8267 44.0373 96.86 44.0373C96.8942 44.0427 96.9277 44.0518 96.96 44.0644L91.8867 49.1492L97.22 56.5492C97.1605 56.5604 97.1004 56.5683 97.04 56.5729C96.0567 56.5729 95.0733 56.5729 94.09 56.5729C94.0296 56.575 93.9697 56.5603 93.9169 56.5304C93.864 56.5006 93.8202 56.4567 93.79 56.4034C92.6078 54.6972 91.4222 52.9932 90.2333 51.2915C90.2 51.2441 90.1667 51.1966 90.1067 51.1186C89.8367 51.3898 89.5933 51.678 89.31 51.9153C89.1499 52.0512 89.0257 52.2256 88.9489 52.4228C88.872 52.6199 88.8449 52.8335 88.87 53.0441C88.9 54.1153 88.87 55.1898 88.87 56.2644V56.5525H86.3433L86.3633 44.0407Z" fill="black"/>
<path d="M62.0467 56.5559L62.8567 54.2441C64.0234 50.9311 65.1878 47.6181 66.35 44.3051C66.3569 44.261 66.3723 44.2186 66.3953 44.1806C66.4183 44.1425 66.4485 44.1095 66.4842 44.0833C66.5198 44.0572 66.5601 44.0385 66.6029 44.0282C66.6457 44.018 66.69 44.0165 66.7334 44.0237C67.55 44.0441 68.3667 44.0237 69.1834 44.0237C69.2429 44.0148 69.3034 44.0295 69.3525 44.0649C69.4016 44.1002 69.4353 44.1535 69.4467 44.2136L73.6667 56.339C73.69 56.4 73.7034 56.4644 73.73 56.5559H72.3334C71.95 56.5559 71.5667 56.5559 71.1834 56.5559C70.9967 56.5559 70.9267 56.4915 70.8734 56.322C70.6567 55.6034 70.4234 54.8915 70.2067 54.1729C70.2018 54.1405 70.1907 54.1095 70.174 54.0815C70.1572 54.0536 70.1352 54.0293 70.1091 54.01C70.0831 53.9908 70.0536 53.977 70.0222 53.9695C69.9909 53.9619 69.9584 53.9608 69.9267 53.9661C68.56 53.9661 67.1934 53.9661 65.8267 53.9661C65.7929 53.9608 65.7585 53.9625 65.7254 53.9709C65.6923 53.9794 65.6611 53.9945 65.6338 54.0153C65.6065 54.0361 65.5835 54.0623 65.5663 54.0923C65.549 54.1222 65.5378 54.1554 65.5334 54.1898C65.3034 54.9186 65.0634 55.6475 64.82 56.3729C64.7967 56.4441 64.7134 56.5424 64.6567 56.5424C63.7834 56.5593 62.93 56.5559 62.0467 56.5559ZM69.4367 51.8102L67.91 46.9966H67.86C67.34 48.5932 66.8234 50.1898 66.2967 51.8034L69.4367 51.8102Z" fill="black"/>
<path d="M12.38 56.5491C12.6167 55.8712 12.84 55.2373 13.0467 54.5966C14.2689 51.1571 15.4833 47.7175 16.69 44.278C16.7046 44.1973 16.7499 44.1257 16.816 44.0788C16.8822 44.0318 16.9638 44.0133 17.0433 44.0271C17.85 44.0271 18.6567 44.0271 19.4667 44.0271C19.5028 44.0192 19.5401 44.0186 19.5765 44.0254C19.6128 44.0322 19.6475 44.0462 19.6785 44.0667C19.7095 44.0872 19.7361 44.1137 19.757 44.1447C19.7779 44.1757 19.7925 44.2107 19.8 44.2475C21.1911 48.2723 22.5911 52.2949 24 56.3152C24.0233 56.383 24.04 56.4576 24.0667 56.5458H21.27L20.7933 55.0475C20.6967 54.7424 20.61 54.4339 20.4967 54.1356C20.476 54.0958 20.4466 54.0614 20.4107 54.0349C20.3749 54.0085 20.3336 53.9907 20.29 53.983C18.8933 53.983 17.4933 53.983 16.0933 53.983C15.94 53.983 15.8967 54.0576 15.8567 54.1797C15.6267 54.9017 15.39 55.6237 15.1567 56.3424C15.1333 56.4136 15.1067 56.4847 15.08 56.5593L12.38 56.5491ZM19.7667 51.8034C19.25 50.1763 18.7467 48.5797 18.22 46.9152L16.63 51.8068L19.7667 51.8034Z" fill="black"/>
<path d="M84.83 52.1729C84.7251 53.0845 84.4049 53.9568 83.8966 54.7153C83.4811 55.348 82.9253 55.8727 82.274 56.2472C81.6227 56.6216 80.894 56.8354 80.1466 56.8712C79.1986 56.9677 78.2415 56.8401 77.35 56.4983C76.7064 56.2456 76.1234 55.8559 75.64 55.3555C75.1565 54.8551 74.7838 54.2554 74.5466 53.5966C73.7486 51.5745 73.7153 49.3235 74.4533 47.278C75.2666 44.9932 77.2233 43.6576 79.8533 43.7932C81.1433 43.861 82.3433 44.1797 83.3066 45.1085C84.1381 45.8819 84.6622 46.9383 84.78 48.078C84.5366 48.078 84.3166 48.1051 84.0966 48.1085C83.5233 48.1085 82.95 48.1288 82.3733 48.1458C82.2533 48.1458 82.16 48.1458 82.1433 47.9864C82.1324 47.9457 82.1179 47.906 82.1 47.8678C81.5566 46.3322 80.2166 45.6644 78.6833 46.1729C78.3304 46.2818 78.0062 46.4704 77.7349 46.7246C77.4636 46.9787 77.2523 47.2919 77.1166 47.6407C76.7434 48.4954 76.5534 49.4211 76.5592 50.3562C76.5649 51.2913 76.7663 52.2145 77.15 53.0644C77.4287 53.6912 77.9286 54.1889 78.5508 54.4588C79.173 54.7287 79.8722 54.7513 80.51 54.522C80.818 54.4293 81.1028 54.2702 81.345 54.0555C81.5871 53.8409 81.781 53.5757 81.9133 53.278C81.9958 53.1027 82.0681 52.9228 82.13 52.739C82.3 52.2339 82.2966 52.2339 82.8366 52.2305C83.3766 52.2271 83.97 52.2102 84.5366 52.1966L84.83 52.1729Z" fill="black"/>
<path d="M42.3333 52.7797C42.4 52.7797 42.4666 52.7797 42.53 52.7797H44.58C44.7233 52.7797 44.7933 52.8034 44.8266 52.9729C45.06 54.1492 45.67 54.6881 46.8566 54.8068C47.5525 54.8973 48.2593 54.842 48.9333 54.6441C49.2076 54.582 49.458 54.4399 49.654 54.2352C49.85 54.0304 49.983 53.772 50.0366 53.4915C50.1132 53.2319 50.0905 52.9525 49.973 52.7092C49.8556 52.466 49.6521 52.2768 49.4033 52.1797C48.8164 51.946 48.2138 51.7557 47.6 51.6102C46.5148 51.3925 45.4456 51.0991 44.4 50.7322C43.0166 50.1695 42.4 48.8746 42.56 47.3898H44.9133C44.89 48.1356 45.3333 48.5017 45.9633 48.6712C47.0733 48.9695 48.1933 49.2305 49.2966 49.5288C49.7927 49.6505 50.2786 49.8114 50.75 50.0102C51.292 50.2305 51.7542 50.6151 52.0738 51.1118C52.3935 51.6084 52.5551 52.1931 52.5366 52.7864C52.5882 53.6113 52.3663 54.4299 51.9065 55.1114C51.4466 55.7929 50.7753 56.298 50 56.5458C48.2431 57.2043 46.3041 57.1485 44.5866 56.3898C43.8973 56.117 43.3073 55.6348 42.8969 55.0089C42.4866 54.3829 42.2758 53.6436 42.2933 52.8915C42.3039 52.8533 42.3172 52.8159 42.3333 52.7797Z" fill="black"/>
<path d="M2.12 47.278H4.45333C4.45333 47.3051 4.48666 47.3254 4.48333 47.3492C4.46621 47.606 4.5392 47.8607 4.68934 48.068C4.83948 48.2753 5.05703 48.4218 5.30333 48.4814C5.90333 48.6847 6.51666 48.8373 7.13 49C7.99666 49.2305 8.87666 49.4271 9.74 49.678C10.3444 49.8341 10.8954 50.1552 11.3333 50.6068C11.6219 50.9397 11.8402 51.3293 11.975 51.7514C12.1097 52.1735 12.1579 52.6192 12.1167 53.061C12.0811 53.8663 11.7936 54.6391 11.2959 55.2665C10.7982 55.894 10.1164 56.3434 9.35 56.5492C7.6426 57.104 5.79536 57.0113 4.15 56.2881C3.49387 56.0245 2.92948 55.5686 2.52833 54.9785C2.12719 54.3883 1.90735 53.6903 1.89666 52.9729C1.89333 52.913 1.89333 52.8531 1.89666 52.7932C1.90191 52.7554 1.90971 52.7181 1.92 52.6814H4.15C4.26666 52.6814 4.36333 52.6814 4.38333 52.8373C4.57666 54.2203 5.45666 54.6136 6.55666 54.7153C7.22948 54.7964 7.91158 54.7293 8.55666 54.5186C8.88759 54.4327 9.17708 54.2285 9.37229 53.9435C9.56751 53.6585 9.65542 53.3116 9.62 52.9661C9.60787 52.7704 9.54037 52.5825 9.42564 52.4249C9.31091 52.2673 9.15384 52.1469 8.97333 52.078C8.35849 51.8477 7.73205 51.6508 7.09666 51.4881C6.02734 51.277 4.97455 50.987 3.94666 50.6203C2.48 50.0102 2 48.6542 2.12 47.278Z" fill="black"/>
<path d="M38.4566 56.5491H35.8633V46.2814H32.16V44.0508H42.1266V46.2508H38.46L38.4566 56.5491Z" fill="black"/>
<path d="M53.2067 46.2814V44.0441H63.1733V46.2441H59.5067V56.539H56.89V46.2814H53.2067Z" fill="black"/>
<path d="M25.2633 44.0407H27.81V54.278H33.97V56.539H25.2633V44.0407Z" fill="black"/>
<path d="M11.72 47.7593H9.26665C9.25286 47.7183 9.24173 47.6764 9.23332 47.6339C9.11332 46.5627 8.36998 46.0542 7.42998 45.9085C6.68306 45.7645 5.91085 45.8519 5.21332 46.1593V43.8475C5.79853 43.7083 6.39937 43.649 6.99998 43.6712C8.31476 43.6345 9.59463 44.1043 10.5833 44.9864C10.9535 45.3417 11.246 45.7721 11.4419 46.2499C11.6377 46.7276 11.7325 47.2419 11.72 47.7593Z" fill="black"/>
<path d="M45.62 43.9085C47.45 43.5695 49.2067 43.6509 50.7567 44.8509C51.7133 45.5898 52.09 46.617 52.15 47.8475H49.8733C49.7667 47.8475 49.6667 47.8678 49.6467 47.6983C49.5333 46.6814 48.8633 46.1695 47.93 46.0034C47.1522 45.8344 46.3414 45.9272 45.62 46.2678V43.9085Z" fill="black"/>
<path d="M100 55.6407C100.001 55.833 99.945 56.0212 99.8402 56.1813C99.7354 56.3414 99.5862 56.4661 99.4114 56.5397C99.2367 56.6133 99.0444 56.6324 98.859 56.5945C98.6736 56.5567 98.5034 56.4636 98.3702 56.3271C98.2369 56.1907 98.1466 56.017 98.1107 55.8282C98.0748 55.6393 98.0949 55.4439 98.1685 55.2668C98.2421 55.0896 98.3658 54.9387 98.524 54.8332C98.6821 54.7278 98.8676 54.6726 99.0567 54.6746C99.1812 54.6741 99.3046 54.6989 99.4197 54.7473C99.5348 54.7958 99.6393 54.8671 99.7271 54.9569C99.8148 55.0468 99.8842 55.1536 99.931 55.271C99.9779 55.3883 100.001 55.514 100 55.6407ZM99.0433 54.8441C98.8378 54.8475 98.6415 54.9316 98.4955 55.0788C98.3495 55.226 98.2651 55.4249 98.26 55.6339C98.2625 55.8471 98.3462 56.051 98.4936 56.2028C98.6409 56.3545 98.8404 56.4422 99.05 56.4475C99.2558 56.4392 99.4511 56.3529 99.5973 56.2054C99.7436 56.0579 99.8301 55.8601 99.84 55.6509C99.8365 55.4374 99.7514 55.2337 99.6026 55.0831C99.4539 54.9324 99.2532 54.8467 99.0433 54.8441Z" fill="black"/>
<path d="M98.6667 55.061C98.9533 55.0949 99.2467 54.9525 99.43 55.2373C99.5567 55.4305 99.46 55.6068 99.2933 55.7424L99.5133 56.1797C99.32 56.2712 99.2667 56.1492 99.2 56.0203C99.1333 55.8915 99.1033 55.7119 98.8667 55.8034L98.85 56.1763L98.7933 56.2271C98.7467 56.1729 98.6667 56.1186 98.6633 56.0644C98.6667 55.7424 98.6667 55.4339 98.6667 55.061ZM98.88 55.1932V55.6407C99.0014 55.6059 99.1196 55.5605 99.2333 55.5051C99.2466 55.4777 99.2535 55.4475 99.2535 55.4169C99.2535 55.3864 99.2466 55.3562 99.2333 55.3288C99.1175 55.273 98.997 55.2277 98.8733 55.1932H98.88Z" fill="black"/>
</svg>

<svg xmlns="http://www.w3.org/2000/svg" width="100" height="100" fill="none"><path fill="#000" d="M3.25 42c0 .634.017 1.264.02 1.895v1.393a1 1 0 0 1-.163.03h-3a1 1 0 0 1-.107-.02V42zM86.363 44.04h2.524v5.126c.413-.444.78-.834 1.14-1.227l3.47-3.753a.45.45 0 0 1 .263-.149h3.1a.5.5 0 0 1 .1.027l-5.073 5.085 5.333 7.4q-.09.017-.18.024h-2.95a.33.33 0 0 1-.3-.17q-1.773-2.56-3.557-5.111c-.033-.048-.066-.095-.126-.173-.27.27-.514.559-.797.796a1.29 1.29 0 0 0-.44 1.129c.03 1.071 0 2.146 0 3.22v.288h-2.527zM62.047 56.556l.81-2.312q1.749-4.97 3.493-9.939a.34.34 0 0 1 .134-.222.33.33 0 0 1 .25-.06c.816.021 1.633 0 2.45 0a.23.23 0 0 1 .169.042c.049.035.082.089.094.149l4.22 12.125c.023.061.036.125.063.217h-2.5469999999999997c-.186 0-.256-.064-.31-.234-.216-.719-.45-1.43-.666-2.15a.25.25 0 0 0-.098-.162.24.24 0 0 0-.182-.044h-4.1a.25.25 0 0 0-.26.126.3.3 0 0 0-.034.098q-.347 1.095-.713 2.183c-.023.071-.107.17-.163.17-.874.016-1.727.013-2.61.013m7.39-4.746-1.527-4.813h-.05c-.52 1.596-1.037 3.193-1.563 4.806zM12.38 56.55c.237-.679.46-1.313.667-1.953q1.833-5.16 3.643-10.319a.31.31 0 0 1 .126-.2.3.3 0 0 1 .227-.05h2.424a.28.28 0 0 1 .29.117q.03.047.043.102 2.087 6.038 4.2 12.068c.023.068.04.143.067.23H21.27l-.477-1.498c-.096-.305-.183-.613-.296-.911a.3.3 0 0 0-.207-.153h-4.197c-.153 0-.196.075-.236.197-.23.722-.467 1.444-.7 2.162q-.036.107-.077.217zm7.387-4.747c-.517-1.627-1.02-3.223-1.547-4.888l-1.59 4.892zM84.83 52.173a5.75 5.75 0 0 1-.933 2.542 4.8 4.8 0 0 1-1.623 1.532 4.7 4.7 0 0 1-2.127.624 6.1 6.1 0 0 1-2.797-.373 4.8 4.8 0 0 1-1.71-1.142c-.484-.5-.856-1.1-1.093-1.76a8.95 8.95 0 0 1-.094-6.318c.814-2.285 2.77-3.62 5.4-3.485 1.29.068 2.49.387 3.454 1.316a4.72 4.72 0 0 1 1.473 2.969c-.243 0-.463.027-.683.03-.574 0-1.147.02-1.724.038-.12 0-.213 0-.23-.16a1 1 0 0 0-.043-.118c-.543-1.536-1.883-2.204-3.417-1.695a2.44 2.44 0 0 0-.948.552 2.5 2.5 0 0 0-.618.916 6.68 6.68 0 0 0 .033 5.423 2.72 2.72 0 0 0 1.4 1.395c.623.27 1.322.292 1.96.063.308-.093.593-.252.835-.466s.436-.48.568-.778q.124-.263.217-.539c.17-.505.167-.505.707-.508s1.133-.02 1.7-.034zM42.333 52.78h2.247c.143 0 .213.023.247.193.233 1.176.843 1.715 2.03 1.834.696.09 1.402.035 2.076-.163.275-.062.525-.204.721-.409s.329-.463.383-.743a1.1 1.1 0 0 0-.064-.783 1.06 1.06 0 0 0-.57-.53 13 13 0 0 0-1.803-.569 24 24 0 0 1-3.2-.878c-1.383-.562-2-1.857-1.84-3.342h2.353c-.023.746.42 1.112 1.05 1.281 1.11.298 2.23.56 3.334.858q.745.182 1.453.481c.542.22 1.004.605 1.324 1.102.32.496.481 1.081.463 1.674a3.74 3.74 0 0 1-.63 2.325A3.64 3.64 0 0 1 50 56.546a7.16 7.16 0 0 1-5.413-.156 3.6 3.6 0 0 1-1.69-1.381 3.7 3.7 0 0 1-.604-2.117 1 1 0 0 1 .04-.112M2.12 47.278h2.333c0 .027.034.047.03.071-.017.257.056.512.206.719s.368.354.614.413c.6.204 1.214.356 1.827.519.867.23 1.747.427 2.61.678a3.4 3.4 0 0 1 1.593.929c.289.333.507.722.642 1.144a3.3 3.3 0 0 1 .142 1.31 3.82 3.82 0 0 1-.821 2.206 3.7 3.7 0 0 1-1.946 1.282 7.3 7.3 0 0 1-5.2-.26 3.57 3.57 0 0 1-1.622-1.31 3.67 3.67 0 0 1-.631-2.186 1 1 0 0 1 .023-.112h2.23c.117 0 .213 0 .233.156.194 1.383 1.074 1.777 2.174 1.878a4.65 4.65 0 0 0 2-.196c.33-.086.62-.29.815-.575.196-.286.283-.632.248-.978a1.03 1.03 0 0 0-.194-.541 1 1 0 0 0-.453-.347 18 18 0 0 0-1.876-.59 22 22 0 0 1-3.15-.868C2.48 50.01 2 48.654 2.12 47.278M38.457 56.55h-2.594V46.28H32.16v-2.23h9.967v2.2H38.46zM53.207 46.281v-2.237h9.966v2.2h-3.666V56.54H56.89V46.281zM25.263 44.04h2.547v10.238h6.16v2.261h-8.707zM11.72 47.76H9.267a1 1 0 0 1-.034-.126c-.12-1.071-.863-1.58-1.803-1.726a3.74 3.74 0 0 0-2.217.251v-2.312A6.7 6.7 0 0 1 7 43.671a5.16 5.16 0 0 1 3.583 1.315c.37.356.663.786.859 1.264s.29.992.278 1.51M45.62 43.909c1.83-.34 3.587-.258 5.137.942.956.739 1.333 1.766 1.393 2.996h-2.277c-.106 0-.206.02-.226-.149-.114-1.017-.784-1.529-1.717-1.695a3.6 3.6 0 0 0-2.31.265zM100 55.64a1 1 0 0 1-.16.541.96.96 0 0 1-.429.359.94.94 0 0 1-1.04-.213.97.97 0 0 1-.203-1.06.97.97 0 0 1 .356-.434.94.94 0 0 1 .533-.158.93.93 0 0 1 .67.282.96.96 0 0 1 .273.684m-.957-.796a.8.8 0 0 0-.547.235.82.82 0 0 0-.236.555.83.83 0 0 0 .234.569c.147.151.346.24.556.244a.82.82 0 0 0 .547-.242.84.84 0 0 0 .243-.554.83.83 0 0 0-.237-.568.8.8 0 0 0-.56-.239"/><path fill="#000" d="M98.667 55.061c.286.034.58-.108.763.176.127.194.03.37-.137.505l.22.438c-.193.091-.246-.03-.313-.16-.067-.129-.097-.308-.333-.217l-.017.373-.057.051c-.046-.054-.126-.108-.13-.163.004-.322.004-.63.004-1.003m.213.132v.448q.182-.052.353-.136a.2.2 0 0 0 0-.176 2 2 0 0 0-.36-.136z"/></svg>
